!!!OTL: 213. Maienbluemlein.
!!!COM: K. M. v. Weber
!!!ODT: 1811
!!!ARE: Europa, Mitteleuropa, Deutschland
!!!SCT: B0213
!!!TXL: @@DE
!!!YEM: Copyright 1995, estate of Helmut Schaffrath.
**kern	**text
*ICvox	*
*Ivox	*
*clefG2	*
*M3/8	*
*k[]	*
*C:	*
=1	=1
!LO:TX:a:t=Mäßig.	!
{8c	Mai-
8e	-en-
8f#	-blüm-
=2	=2
8g	-lein
16aL	ſo
16bJ	.
8cc}	ſchön,
=3	=3
{8cc	mag
8a	euch
8dd	gern
=4	=4
16bL	blü-
16ccJ	.
16aL	-hen
16bJ	.
8g}	-ſehn
=5	=5
{8g	drau-
8b	-ßen
8cc	im
=6	=6
4cc#	Frei-
8dd}	-en,
=7	=7
{8g	im
8b	grü-
8cc	-nen
=8	=8
4cc#	Mai-
8dd}	-en;
=9	=9
{8c	Blümlein
8e	.
8g	im
=10	=10
(16aq	.
8g#)	Gar-
8f#	-ten
8g#	und
=11	=11
(<4a	Wie-
8b)	.
=12	=12
4cc	-ſe,
8r}	.
=13	=13
{(8ccq	.
8.ee)	kei-
16dd	-ne
8cc	ſo
=14	=14
(16ccq	.
8b)	ſchön
8a	ſind
8g	als
=15	=15
4.g	die-
=16	=16
4cc	-ſe.
8r}	.
==	==
!!!AGN: Jahreszeiten - Lied, Fruehling
!!!GTL: Jahreszeitenlieder
!!!ONB: ESAC (Essen Associative Code) Database: BOEHME
!!!AMT: simple triple
!!!AIN: vox
!!!EED: Helmut Schaffrath
!!!EEV: 1.0
!!!RDF**kern: < = below
!!@@COMMENT:"Auguſt Ekſchläger 1811."
!!@@END:
!!!Text: A. Ekschläger
!!!URL-scan: https://archive.org/details/BoehmeVtLieder1895/page/n195/mode/2up
!!!ENC: Anna Maria Matuszewska
!!!EEV: 2024/24/06
*-	*-
